X:512
T:Kalenda Maya
Z:Jack Campin, http://www.campin.me.uk/
F:Jack Campin's Nine-Note Tunebook
% last edit 03-02-2013
C:Raimbault de Vaqueiras, 13th century 
M:3/4
L:1/4
Q:3/4=60
K:DDor
E|G2  G|(A/G/) F \
G|A2 _B| A     G
A|B2  c|(B     A)\
G|E2  F|(E/D/) C:|
E|G2  G| A2   _B    | G2     F |(E/D/) C:|
E|D C E| D C \
E|G2  G| E2   (F/E/)| D    C
E|D C E| D C \
E|G2  G| E2    F    |(E/F/ E D)|(D     C2)|]


